X: 3290
M: 6/8
L: 1/8
K: C
cec A2c | GAG GGA | GAG GAc | e2g fed |\
cec A2c | GAG GGA | GGf efd | c3  c2 :|
|: G |\
c2e g2e | f2d gec | cde f2d | e2c dcA |\
c2e g2e | f2d gec | ede GAG | e2g fed :|


